build/img/sprite_auto.svg

<svg xmlns="http://www.w3.org/2000/svg" xmlns:xlink="http://www.w3.org/1999/xlink"><defs>
<clipPath id="clip0">
<rect x="9" y="18" width="12" height="7.4" transform="rotate(-90 9 18)" fill="white"/>
</clipPath>
</defs><symbol id="icon-arrowdown" viewBox="0 0 25 25">
<g clip-path="url(#clip0)">
<path fill-rule="evenodd" clip-rule="evenodd" d="M9 7.4L13.6 12L9 16.6L10.4 18L16.4 12L10.4 6L9 7.4Z" fill="#2C2E3F" fill-opacity="0.5"/>
</g>

</symbol><symbol id="icon-cross" viewBox="0 0 50 52">
<rect width="50" height="52" fill="white"/>
<path d="M14 37.7213L36 15M36 37.7213L14 15" stroke="#141517" stroke-opacity="0.2" stroke-linecap="round" stroke-linejoin="round"/>
</symbol><symbol id="icon-mail" viewBox="0 0 26 20">
<path d="M24.2273 0H1.77273C0.768182 0 0 0.764706 0 1.76471V18.2353C0 19.2353 0.768182 20 1.77273 20H24.2273C25.2318 20 26 19.2353 26 18.2353V1.76471C26 0.764706 25.2318 0 24.2273 0ZM24.2273 17L19.5591 12.3529C19.2045 12 18.6727 12 18.3182 12.3529C17.9636 12.7059 17.9636 13.2353 18.3182 13.5882L22.9864 18.2353H3.01362L7.68182 13.5882C8.03636 13.2353 8.03636 12.7059 7.68182 12.3529C7.32727 12 6.79547 12 6.44092 12.3529L1.77273 17V5.70585L12.4091 13.7059C12.5864 13.8236 12.7636 13.8823 12.9409 13.8823C13.1182 13.8823 13.2954 13.8236 13.4727 13.7059L24.2273 5.70585V17ZM24.2273 1.76471V3.4706L12.9409 11.8235L1.77273 3.4706V1.76471H24.2273Z" fill="#0AD9C6"/>
</symbol><symbol id="icon-menu" viewBox="0 0 30 30">
<path fill-rule="evenodd" clip-rule="evenodd" d="M3.75 21H26.25V20H3.75V21ZM3.75 14.75H26.25V13.75H3.75V14.75ZM3.75 7.5V8.5H26.25V7.5H3.75Z" fill="black"/>
</symbol><symbol id="icon-phone" viewBox="0 0 22 24">
<path d="M3.45616 6.74199C3.37161 5.54391 3.63734 4.36374 4.34096 3.41452C4.95096 2.554 5.74517 2.08404 6.70245 1.8094C7.50874 1.57018 8.03721 1.86329 8.26974 2.75972C8.60192 4.09991 9.07604 5.44018 9.24817 6.85129C9.30253 7.47252 8.90089 8.35089 8.46604 8.80328C7.37589 9.87655 7.60238 10.6576 8.42982 12.282C8.6865 12.8057 9.09418 13.7111 9.88839 14.9096C10.7158 16.1169 11.1537 16.7649 12.2167 16.2152C13.3974 15.6212 14.2581 16.0032 15.1489 16.9621C15.7529 17.6546 16.4172 18.2495 17.0212 18.942C17.8939 19.9718 17.8547 20.6818 17.1722 21.4091C15.9431 22.7486 13.9138 23.1913 12.4039 22.2943C11.5705 21.8058 10.74 21.1664 10.0787 20.4206C7.16453 17.1002 5.06272 13.2388 3.79741 8.88089C3.59508 8.14421 3.50146 7.39872 3.45616 6.74199Z" stroke="#0AD9C6" stroke-width="2" stroke-miterlimit="10"/>
</symbol><symbol id="icon-play" viewBox="0 0 65 65">
<path fill-rule="evenodd" clip-rule="evenodd" d="M32.5 65C50.4493 65 65 50.4493 65 32.5C65 14.5507 50.4493 0 32.5 0C14.5507 0 0 14.5507 0 32.5C0 50.4493 14.5507 65 32.5 65Z" fill="#0AD9C6"/>
<path fill-rule="evenodd" clip-rule="evenodd" d="M28.6001 23.3999L41.6001 32.4999L28.6001 41.5999V23.3999Z" fill="#070707"/>
</symbol></svg>

<svg xmlns="http://www.w3.org/2000/svg" xmlns:xlink="http://www.w3.org/1999/xlink"><defs><clipPath id="clip0"><path transform="rotate(-90 9 18)" fill="#fff" d="M9 18h12v7.4H9z"/></clipPath></defs><symbol id="icon-arrowdown"><g clip-path="url(#clip0)"><path fill-rule="evenodd" clip-rule="evenodd" d="M9 7.4l4.6 4.6L9 16.6l1.4 1.4 6-6-6-6L9 7.4z" fill="#2C2E3F" fill-opacity=".5"/></g></symbol><symbol id="icon-cross"><path d="M0 0h50v52H0z"/><path d="M14 37.7L36 15m0 22.7L14 15" stroke="#141517" stroke-opacity=".2" stroke-linecap="round" stroke-linejoin="round"/></symbol><symbol id="icon-mail"><path d="M24.2 0H1.8C.8 0 0 .8 0 1.8v16.4c0 1 .8 1.8 1.8 1.8h22.4c1 0 1.8-.8 1.8-1.8V1.8c0-1-.8-1.8-1.8-1.8zm0 17l-4.6-4.6a.9.9 0 00-1.3 0c-.3.3-.3.8 0 1.2l4.7 4.6H3l4.7-4.6c.3-.4.3-.9 0-1.2a.9.9 0 00-1.3 0L1.8 17V5.7l10.6 8 .5.2c.2 0 .4 0 .6-.2l10.7-8V17zm0-15.2v1.7L13 11.8 1.8 3.5V1.8h22.4z" fill="#0AD9C6"/></symbol><symbol id="icon-menu" viewBox="0 0 30 30">
<path fill-rule="evenodd" clip-rule="evenodd" d="M3.75 21H26.25V20H3.75V21ZM3.75 14.75H26.25V13.75H3.75V14.75ZM3.75 7.5V8.5H26.25V7.5H3.75Z" fill="black"/>
</symbol><symbol id="icon-phone"><path d="M3.5 6.7a5 5 0 01.8-3.3c.7-.8 1.4-1.3 2.4-1.6.8-.2 1.3 0 1.6 1 .3 1.3.8 2.6 1 4a3 3 0 01-.8 2c-1.1 1-.9 1.9 0 3.5.2.5.6 1.4 1.4 2.6.8 1.2 1.3 1.9 2.3 1.3 1.2-.6 2-.2 3 .8l1.8 2c.9 1 .9 1.7.2 2.4-1.3 1.3-3.3 1.8-4.8.9a9.7 9.7 0 01-2.3-1.9A30 30 0 013.8 9a11 11 0 01-.3-2.2z" stroke="#0AD9C6" stroke-width="2" stroke-miterlimit="10"/></symbol><symbol id="icon-play"><path fill-rule="evenodd" clip-rule="evenodd" d="M32.5 65a32.5 32.5 0 100-65 32.5 32.5 0 000 65z" fill="#0AD9C6"/><path fill-rule="evenodd" clip-rule="evenodd" d="M28.6 23.4l13 9.1-13 9.1V23.4z" fill="#070707"/></symbol></svg>
